assets/icons/delivery.svg

<svg width="30" height="30" viewBox="0 0 30 30" fill="none" xmlns="http://www.w3.org/2000/svg">
<path d="M3.78958 5.10522C3.14388 5.10522 2.52463 5.36173 2.06806 5.8183C1.61148 6.27488 1.35498 6.89413 1.35498 7.53982V20.9301H3.78958C3.78958 21.8987 4.17433 22.8275 4.8592 23.5124C5.54406 24.1973 6.47293 24.582 7.44148 24.582C8.41002 24.582 9.3389 24.1973 10.0238 23.5124C10.7086 22.8275 11.0934 21.8987 11.0934 20.9301H18.3972C18.3972 21.8987 18.7819 22.8275 19.4668 23.5124C20.1517 24.1973 21.0805 24.582 22.0491 24.582C23.0176 24.582 23.9465 24.1973 24.6314 23.5124C25.3162 22.8275 25.701 21.8987 25.701 20.9301H28.1356V14.8436L24.4837 9.97442H20.8318V5.10522H3.78958ZM12.3107 7.53982L17.1799 12.409L12.3107 17.2782V13.6263H5.00688V11.1917H12.3107V7.53982ZM20.8318 11.8004H23.875L26.2731 14.8436H20.8318V11.8004ZM7.44148 19.1042C7.92575 19.1042 8.39019 19.2965 8.73262 19.639C9.07505 19.9814 9.26743 20.4458 9.26743 20.9301C9.26743 21.4144 9.07505 21.8788 8.73262 22.2213C8.39019 22.5637 7.92575 22.7561 7.44148 22.7561C6.95721 22.7561 6.49277 22.5637 6.15034 22.2213C5.8079 21.8788 5.61553 21.4144 5.61553 20.9301C5.61553 20.4458 5.8079 19.9814 6.15034 19.639C6.49277 19.2965 6.95721 19.1042 7.44148 19.1042ZM22.0491 19.1042C22.5333 19.1042 22.9978 19.2965 23.3402 19.639C23.6826 19.9814 23.875 20.4458 23.875 20.9301C23.875 21.4144 23.6826 21.8788 23.3402 22.2213C22.9978 22.5637 22.5333 22.7561 22.0491 22.7561C21.5648 22.7561 21.1004 22.5637 20.7579 22.2213C20.4155 21.8788 20.2231 21.4144 20.2231 20.9301C20.2231 20.4458 20.4155 19.9814 20.7579 19.639C21.1004 19.2965 21.5648 19.1042 22.0491 19.1042Z" fill="#C5C5C5"/>
</svg>

<svg width="30" height="30" fill="none" xmlns="http://www.w3.org/2000/svg"><path d="M3.79 5.105A2.435 2.435 0 001.355 7.54v13.39H3.79a3.652 3.652 0 107.303 0h7.304a3.652 3.652 0 107.304 0h2.435v-6.086l-3.652-4.87h-3.652V5.105H3.79zm8.52 2.435l4.87 4.869-4.87 4.87v-3.653H5.008v-2.434h7.304V7.54zm8.522 4.26h3.043l2.398 3.044h-5.441V11.8zm-13.39 7.304a1.826 1.826 0 110 3.652 1.826 1.826 0 010-3.652zm14.607 0a1.826 1.826 0 110 3.651 1.826 1.826 0 010-3.65z" fill="#C5C5C5"/></svg>
